X:1
T:MARCH OF THE HEROES.
T:MARCH OF THE HEROES.
T:EDMUND BRAHAM
T:Copyright 1897 by Edmund Braham.
T:Copyright 1897 by Edmund Braham.
T:Copyright 1897 by Edmund Braham.
T:Copyright 1897 by Edmund Braham.
T:Copyright 1897 by Edmund Braham.
T:Copyright 1897 by Edmund Braham.
C:EDMUND BRAHAM
Z:Copyright 1897 by Edmund Braham.
%%score { ( 1 3 ) | 2 }
L:1/8
Q:1/4=180
M:6/8
K:Eb
V:1 treble nm="Piano" snm="Pno."
V:3 treble 
V:2 bass 
V:1
"^INTROD."!ff! B2 (3B/B/B/ BFB | d2 (3d/d/d/ dBd | f2 (3f/f/f/ fdf | a2 (3f'/g'/a'/ b'2 z |: %4
!p! [DAB]!<(!z[DAB] [DA=B]z[DAB] | [DAc]z[DAc] [DAd]z[DAd]!<)! |!f! [Ge]zd [GBe]zg | %7
 [Gc]3- [Gc]2 B | d2 ([ab] c2) ([da] | B2) ([dg] A2) ([df] | [Ge])gf edc | [GB]3- [GB]2 z | %12
!p!!p! [DAB]z[DAB] [DA=B]z[DAB] | [DAc]z[DAc] [DAd]z[DAd] | [Ge]z[Ge] [Gd]z[Ge] | %15
!f! [ee']z=a [dd']z[cc'] | [Bb][cc'][Bb] [Gg][Ee][Cc] | [B,DFB]2 z z2 z | [G,E]3 B,2 (3B,/C/D/ |1 %19
 EBB BBB :|2 E2 z (EAB) ||[K:Ab] z z [EA] z z [EG] | z z [EA] z z [E=A] | z2 =A Bz[fa] | %24
 z z [Bd] z z [Bd] | !arpeggio![GBdf]z[^F=A] [GB]z[=Ac] | [Bd]EE EEE | [df]z[ce] [=B=d]z[ce] | %28
 [GB]EF GAB | z z [EA] z z [EG] | z z [EA] z z [E=A] | z =AB d2 [Ff] | [Aa]3- [Aa][Ff][Gg] | %33
 [Aa]3- [Aa][Bb][=B=b] | [cc']3- [cc'][Aa][Ff] | [Ee]3 G(A/G/F/G/) | %36
 A!>![Ee]!>![Ff] !>![Gg]!>![Aa]!>![Bb] |!ff! z [ea][ea] z [eg][eg] | z [ea][ea] z [e=a][ea] | %39
 z2 =A Bz[fa] | z [Bd][Bd] z [Bd][Bd] | !arpeggio![gbd'f']z[^f=a] [gb]z[ac'] | [bd']ee eee | %43
 [d'f']z[c'e'] [=b=d']z[c'e'] | [gb]!>![Ee]!>![Ff] !>![Gg]!>![Aa]!>![Bb] | z [ea][ea] z [eg][eg] | %46
 z [ea][ea] z [e=a][ea] | z (=ab) d'2 [ff'] | [aa']3- [aa'][Ff][Gg] | [Aa]3- [Aa][Bb][=B=b] | %50
 [cc']3- [cc'][Aa][Ff] | [Ee]3 G(A/G/F/G/) | A2 z [Acea]2 z || %53
[K:Eb][M:2/4]!ff![Q:1/4=130] z !>![CEB] !>![CE=A]2 | z !>![FAe] !>![FAd]2 | %55
 z !>![fae'] !>![fad']2 |{/a'} b' z !>![Gg]>d || !>![Ff]>(B [Ee]>)(G | [Dd]>)(G [Cc]>)(G | %59
 [^C^c]>)[DAd] [DAd][Ff] | [CAc]2 z [EAe] | [EAe]>[DAd] [DAd][Ff] | [CAc]2 z [Dd] | %63
 [CGc]>B G[^Fc] | [AB]3 [GBdg] | [Ff]>(B [Ee]>)(G | [Dd]>)(G [Cc]>)_G | [Dc]Bd[Bb] | %68
 z [Bd]/[Bd]/ [Bd] [Ff]/[^F^f]/ | z [ce]/[ce]/ [ce] [Ff]/[^F^f]/ | [Gg][Ff] [Bb]/B/c/^c/ | %71
 [FBd]2 [E=Ac]2 | [DFB]2!8va(! [gg']>d' | [ff']>(b [ee']>)(g | [dd']>)(g [cc']>)(g | %75
 [^c^c']>)[dad'] [dad'][ff'] | [cac']2 z [eae'] | [eae']>[dad'] [dad'][ff'] | [cac']2 z [dd'] | %79
 [cgc']>b g[^fc'] | [ab]3!8va)! [GBdg] | [Ff]>(B [Ee]>)G | [FBf]2 [G_dg]2 | [Beb]>[Aa] [Gg][Aa] | %84
 [ee']>[Ee] [Ff][^F^f] | g>=f ec | BGA=A | B2 !turn!d2 | e z z2 || %89
[K:Eb][M:6/8]!ff![Q:1/4=180]"^180" B2 (3B/B/B/ BFB | d2 (3d/d/d/ dBd | f2 (3f/f/f/ fdf | %92
 a2 (3f'/g'/a'/ b'2 z || [DAB]z[DAB] [DA=B]z[DAB] | [DAc]z[DAc] [DAd]z[DAd] | [Ge]zd [GBe]zg | %96
 [Gc]3- [Gc]2 B | d2 ([ab] c2) ([da] | B2) ([dg] A2) ([df] | [Ge])gf edc | [GB]3- [GB]2 z | %101
 [DAB]z[DAB] [DA=B]z[DAB] | [DAc]z[DAc] [DAd]z[DAd] | [Ge]z[Ge] [Gd]z[Ge] | %104
"_c r e s c _  _  _" [ee']z=a [dd']z[cc'] | [Bb][cc'][Bb] [Gg][Ee][Cc] |!ff! [B,DFB]2 z z2 z | %107
 [G,E]3!fff! B,2 (3B,/C/D/ | [G,B,E]2 z z2 z |] %109
V:2
 [B,,B,]z[B,,B,] [B,,B,][F,,F,][B,,B,] | [D,D]z[D,D] [D,D][B,,B,][D,D] | %2
 [F,F]z[F,F] [F,F][D,D][F,F] | A,2 z [B,DFA]2 z |: [B,,B,]z[B,,B,] [=A,,=A,]z[A,,A,] | %5
 [_A,,_A,]z[A,,A,] [F,,F,]z[F,,F,] | [E,,E,]z[G,B,E] B,,z[G,B,E] | [E,,E,]z[G,B,E] B,,z[G,B,E] | %8
 B,,z[A,B,D] F,,z[A,B,D] | B,,z[A,B,D] F,,z[A,B,D] | [E,,E,]z[G,B,E] [E,,E,]z[=A,C^F] | %11
 [E,E][F,F][E,E] [D,D][C,C][=B,,=B,] | [B,,B,]z[B,,B,] [=A,,=A,]z[A,,A,] | %13
 [_A,,_A,]z[A,,A,] [F,,F,]z[F,,F,] | [E,,E,]z[G,B,E] B,,z[G,B,E] | %15
 [^F,,^F,]z[=A,CE] [=A,,=A,]z[A,CE] | [B,GB]2 z z2 z | %17
 z [B,,,B,,][=B,,,=B,,] [C,,C,][^C,,^C,][D,,D,] | [E,,E,]2 z [B,,,B,,]3 |1 [E,,,E,,]2 z z2 z :|2 %20
 [E,,,E,,]2 z z2 z ||[K:Ab] [A,,A,]3 [G,,G,]3 | [_G,,_G,]3 [F,,F,]3 | [D,,D,]z[B,DF] B,,z[B,DF] | %24
 [D,,D,]z[B,DF] B,,z[B,DF] | [E,,E,]z[DE] [G,,G,]z[DE] | [E,,E,]z[G,B,D] [G,,G,]z[G,B,D] | %27
 [A,,A,]z[A,CE] [E,,E,]z[A,CE] | z E,=D _DCB, | [A,,A,]3 [G,,G,]3 | [_G,,_G,]3 [F,,F,]3 | %31
 [D,,D,]z[B,DF] B,,z[B,DF] | [D,,D,]z[B,DF] [B,DF] z z | z [F,,F,][A,,A,] [=B,,=B,]3 | %34
 z [E,,E,][A,,A,] [C,C]3 | [E,,E,]2 z [E,B,D]3 | %36
 [A,C]!>![E,E]!>![=D,=D] !>![_D,_D]!>![C,C]!>![B,,B,] | [A,,A,][A,CE][A,CE] [G,,G,][G,CE][G,CE] | %38
 [_G,,_G,][G,A,E][G,A,E] [F,,F,][F,=A,E][F,A,E] | [D,,D,]z[B,DF] B,,z[B,DF] | %40
 [D,,D,]z[B,DF] B,,z[B,DF] | [E,,E,]z[DE] [G,,G,]z[DE] | [E,,E,]z[G,B,D] [G,,G,]z[G,B,D] | %43
 [A,,A,]z[A,CE] [E,,E,]z[A,CE] | z !>!E,!>![=D,=D] !>![_D,_D]!>![C,C]!>![B,,B,] | %45
 [A,,A,][A,CE][A,CE] [G,,G,][G,CE][G,CE] | [_G,,_G,][G,A,E][G,A,E] [F,,F,][F,=A,E][F,A,E] | %47
 [D,,D,]z[B,DF] B,,z[B,DF] | [D,,D,]z[B,DF] [B,DF] z z | z [F,,F,][A,,A,] [=B,,=B,]3 | %50
 z [E,,E,][A,,A,] [C,C]3 | [E,,E,]2 z [E,B,D]3 | [A,CE]2 z [A,,,A,,]2 z || %53
[K:Eb][M:2/4] z !>!^F, !>!=F,2 | z !>!=B, !>!_B,2 | z !>!=B !>!_B2 | B, z z2 || %57
 [E,,E,][G,B,E] B,,[G,B,E] | [E,,E,][G,B,] B,,[G,B,] | F,[A,B,] B,,[A,B,] | F,[A,B,] B,,[A,B,] | %61
 F,[A,B,] B,,[A,B,] | z [B,,,B,,][C,,C,][D,,D,] | E,[G,B,E] B,,[=A,_E] | %64
 [B,,,B,,]>[=B,,,=B,,] [C,,C,][D,,D,] | [E,,E,][G,B,E] B,,[G,B,E] | E,[G,B,E] E,[_G,B,E] | %67
 F,,[F,B,D] F,,[F,B,D] | D,[F,B,D] [F,B,D] z | C,[F,=A,E] F,,[F,A,E] | B,,[F,B,D] _G,,[_G,B,=E] | %71
 [F,,F,]2 [F,,F,]2 | B,,[A,B,D] z2 | [E,,E,][G,B,E] B,,[G,B,E] | [E,,E,][G,B,] B,,[G,B,] | %75
 F,[A,B,] B,,[A,B,] | F,[A,B,] B,,[A,B,] | F,[A,B,] B,,[A,B,] | z [B,,,B,,][C,,C,][D,,D,] | %79
 E,[G,B,E] B,,[=A,_E] | [B,,,B,,]>[=B,,,=B,,] [C,,C,][D,,D,] | [E,,E,][G,B,E] B,,[G,B,E] | %82
 D,[B,DF] _D,[G,B,E] | C,[A,CE] C,[A,CE] | =B,,[A,^D] B,,[A,D] | [_B,,E,G,]>=F, E,C, | %86
 B,,G,,A,,=A,, | B,,2 [F,A,B,D]2 | [E,G,B,E] z E,, z || %89
[K:Eb][M:6/8] [B,,B,]z[B,,B,] [B,,B,][F,,F,][B,,B,] | [D,D]z[D,D] [D,D][B,,B,][D,D] | %91
 [F,F]z[F,F] [F,F][D,D][F,F] | A,2 z [B,DFA]2 z || [B,,B,]z[B,,B,] [=A,,=A,]z[A,,A,] | %94
 [_A,,_A,]z[A,,A,] [F,,F,]z[F,,F,] | [E,,E,]z[G,B,E] B,,z[G,B,E] | [E,,E,]z[G,B,E] B,,z[G,B,E] | %97
 B,,z[A,B,D] F,,z[A,B,D] | B,,z[A,B,D] F,,z[A,B,D] | [E,,E,]z[G,B,E] [E,,E,]z[=A,C^F] | %100
 [E,E][F,F][E,E] [D,D][C,C][=B,,=B,] | [B,,B,]z[B,,B,] [=A,,=A,]z[A,,A,] | %102
 [_A,,_A,]z[A,,A,] [F,,F,]z[F,,F,] | [E,,E,]z[G,B,E] B,,z[G,B,E] | %104
 [^F,,^F,]z[=A,CE] [=A,,=A,]z[A,CE] | [B,GB]2 z z2 z | %106
 z [B,,,B,,][=B,,,=B,,] [C,,C,][^C,,^C,][D,,D,] | [E,,E,]2 z [B,,,B,,]3 | [E,,,E,,]2 z z2 z |] %109
V:3
 x6 | x6 | x6 | x6 |: x6 | x6 | x6 | x6 | x6 | x6 | x6 | x6 | x6 | x6 | x6 | x6 | x6 | x6 | x6 |1 %19
 x6 :|2 x6 ||[K:Ab] c3 c3 | c3 c3 | x6 | g3 f3 | x6 | x6 | x6 | x6 | c3 c3 | c3 c3 | x6 | x6 | x6 | %34
 x6 | x6 | x6 | [cc']3 [cc']3 | [cc']3 [cc']3 | x6 | [Gg]3 [Ff]3 | x6 | x6 | x6 | x6 | %45
 [cc']3 [cc']3 | [cc']3 [cc']3 | x6 | x6 | x6 | x6 | x6 | x6 ||[K:Eb][M:2/4] x4 | x4 | x4 | x4 || %57
 x4 | x4 | x4 | x4 | x4 | x4 | x4 | x4 | x4 | x4 | x4 | [Ff]3 z | [Gg]3 z | x4 | x4 | x2!8va(! x2 | %73
 x4 | x4 | x4 | x4 | x4 | x4 | x4 | x3!8va)! x | x4 | x4 | x4 | x4 | x4 | x4 | x4 | x4 || %89
[K:Eb][M:6/8] x6 | x6 | x6 | x6 || x6 | x6 | x6 | x6 | x6 | x6 | x6 | x6 | x6 | x6 | x6 | x6 | x6 | %106
 x6 | x6 | x6 |] %109

